shader_type canvas_item;

uniform float height = 5.0;
uniform float frequency = 0.5;
uniform float speed = 5.0;

void vertex() {
	VERTEX.y += height * sin(speed * TIME);
}

void fragment() {
	// Called for every pixel the material is visible on.
}

//void light() {
	// Called for every pixel for every light affecting the CanvasItem.
	// Uncomment to replace the default light processing function with this one.
//}
